X: 237
T: Old Aunt Jenny with Her Nightcap on
B: canberra pickers and fiddlers
B: tunes
M:4/4
L:1/8
Q: 1/4=100
K:G
V:1 
B-||BA BA G2 GG|A2G2E3D|BBAA GGBA|D2E2 G4|
BBAA GGBB|A2G2E3D|BBAA GGBB|D2E2 G3B||
e4 e4|efgf e2d2|B2B2 dBAA |[M:6/4]G2G2A2G2 E4|
[M:4/4]e4 e4|efgf e2d2|B2B2 dBAA|[M:6/4]G2B2D2E2 G4||
% abcbook-tune_id 63ae8f1c4e0d3da7891d00e0
% abcbook-tune_composer_id 
% abcbook-link-0 https://www.youtube.com/watch?v=x9zT9NAYDIc
% abcbook-boost 0
% abcbook-difficulty 0
% abcbook-tags canberra pickers and fiddlers,old time tunes,© free
% abcbook-tablature 
% abcbook-transpose 
% abcbook-tuning GDAD
% abcbook-lastupdated 1672384284224
% abcbook-src-url https://tunebook.net/scrape/tunes.abc
% abcbook-soundfonts 
% abcbook-repeats 1


